src/xmb/flatui/core.svg

<?xml version="1.0" encoding="UTF-8" standalone="no"?>

<svg
   xmlns:dc="http://purl.org/dc/elements/1.1/"
   xmlns:cc="http://creativecommons.org/ns#"
   xmlns:rdf="http://www.w3.org/1999/02/22-rdf-syntax-ns#"
   xmlns:svg="http://www.w3.org/2000/svg"
   xmlns="http://www.w3.org/2000/svg"
   xmlns:sodipodi="http://sodipodi.sourceforge.net/DTD/sodipodi-0.dtd"
   xmlns:inkscape="http://www.inkscape.org/namespaces/inkscape"
   version="1.1"
   id="svg2"
   inkscape:export-filename="/media/alfrix/DATOS/xmb/menu_core.png"
   inkscape:export-xdpi="384"
   inkscape:version="0.92.3 (2405546, 2018-03-11)"
   inkscape:export-ydpi="384"
   sodipodi:docname="core.svg"
   x="0px"
   y="0px"
   width="64px"
   height="64px"
   viewBox="0 128 64 64"
   enable-background="new 0 128 64 64"
   xml:space="preserve"><metadata
   id="metadata8"><rdf:RDF><cc:Work
       rdf:about=""><dc:format>image/svg+xml</dc:format><dc:type
         rdf:resource="http://purl.org/dc/dcmitype/StillImage" /></cc:Work></rdf:RDF></metadata><defs
   id="defs6" /><sodipodi:namedview
   pagecolor="#ffffff"
   bordercolor="#666666"
   borderopacity="1"
   objecttolerance="10"
   gridtolerance="10"
   guidetolerance="10"
   inkscape:pageopacity="0"
   inkscape:pageshadow="2"
   inkscape:window-width="1024"
   inkscape:window-height="705"
   id="namedview4"
   showgrid="true"
   inkscape:zoom="14.75"
   inkscape:cx="31.301699"
   inkscape:cy="41.30692"
   inkscape:window-x="-8"
   inkscape:window-y="-8"
   inkscape:window-maximized="1"
   inkscape:current-layer="svg2"><inkscape:grid
     type="xygrid"
     id="grid815" /></sodipodi:namedview>
<path
   id="Games_1_"
   d="m 20.923076,166.28559 4.923077,4.92308 c 22.153846,0 22.153846,-27.14585 22.153846,-27.14585 0,0 -27.076923,-2.39261 -27.076923,22.22277 z m 17.230769,-11.07692 c -1.358769,0 -2.461538,-1.10277 -2.461538,-2.46154 0,-1.35877 1.102769,-2.46154 2.461538,-2.46154 1.358769,0 2.461538,1.10277 2.461538,2.46154 0,1.35877 -1.102769,2.46154 -2.461538,2.46154 z m -14.850461,-2.33231 c -1.372308,2.05785 -2.360615,4.40492 -2.948923,7.04246 -1.816616,-0.29046 -4.354462,0.0812 -4.354462,0.0812 0,0 2.114462,-6.17846 7.303385,-7.12369 z m -6.072615,21.89292 c 0,0 1.846153,-7.8683 4.923076,-4.79138 3.076923,3.07692 -4.923076,4.79138 -4.923076,4.79138 z m 14.76923,1.23077 c 0,0 0.532923,-2.55507 0.184615,-4.37907 2.731077,-0.74462 5.031385,-1.95816 6.956308,-3.48308 -1.244308,5.03138 -7.140923,7.86215 -7.140923,7.86215 z"
   inkscape:connector-curvature="0"
   style="fill:#ecf0f1;stroke-width:2;fill-opacity:1;stroke:#2c3e50;stroke-miterlimit:4;stroke-dasharray:none;paint-order:stroke fill markers;stroke-opacity:1" />
<path
   style="opacity:1;vector-effect:none;fill:#d35400;fill-opacity:1;stroke:#2c3e50;stroke-width:2;stroke-linecap:butt;stroke-linejoin:bevel;stroke-miterlimit:4;stroke-dasharray:none;stroke-dashoffset:0;stroke-opacity:1;paint-order:stroke fill markers"
   d="M 20.556641 41.277344 C 18.449219 41.57482 17.230469 46.769531 17.230469 46.769531 C 17.230469 46.769531 25.23122 45.055436 22.154297 41.978516 C 21.577374 41.401593 21.042969 41.208695 20.556641 41.277344 z "
   transform="translate(0,128)"
   id="rect816" /><path
   id="path822"
   d="M 21.71467,169.27068 C 20.667395,169.41851 20.061742,172 20.061742,172 c 0,0 3.975942,-0.85182 2.446877,-2.38088 -0.2867,-0.2867 -0.55227,-0.38256 -0.793949,-0.34844 z"
   style="opacity:1;vector-effect:none;fill:#f1c40f;fill-opacity:1;stroke:none;stroke-width:2.00000024;stroke-linecap:butt;stroke-linejoin:bevel;stroke-miterlimit:4;stroke-dasharray:none;stroke-dashoffset:0;stroke-opacity:1;paint-order:stroke fill markers"
   inkscape:connector-curvature="0" /><path
   style="fill:#3498db;stroke:none;stroke-width:1px;stroke-linecap:butt;stroke-linejoin:miter;stroke-opacity:1;fill-opacity:1"
   d="M 23.302734 24.876953 C 18.113811 25.822183 16 32 16 32 C 16 32 18.5369 31.627509 20.353516 31.917969 C 20.941824 29.280429 21.930426 26.934803 23.302734 24.876953 z "
   transform="translate(0,128)"
   id="path824" /><path
   style="fill:#3498db;stroke:none;stroke-width:1px;stroke-linecap:butt;stroke-linejoin:miter;stroke-opacity:1;fill-opacity:1"
   d="M 39.140625 40.138672 C 37.215702 41.663592 34.916624 42.876474 32.185547 43.621094 C 32.533855 45.445094 32 48 32 48 C 32 48 37.896317 45.170052 39.140625 40.138672 z "
   transform="translate(0,128)"
   id="path839" /><path
   style="opacity:1;vector-effect:none;fill:#2c3e50;fill-opacity:1;stroke:none;stroke-width:2;stroke-linecap:butt;stroke-linejoin:bevel;stroke-miterlimit:4;stroke-dasharray:none;stroke-dashoffset:0;stroke-opacity:1;paint-order:stroke fill markers"
   d="M 38.154297 22.285156 C 36.795528 22.285156 35.691406 23.389277 35.691406 24.748047 C 35.691406 26.106817 36.795528 27.208984 38.154297 27.208984 C 39.513066 27.208984 40.615234 26.106817 40.615234 24.748047 C 40.615234 23.389277 39.513066 22.285156 38.154297 22.285156 z "
   transform="translate(0,128)"
   id="path849" /></svg>

<svg xmlns="http://www.w3.org/2000/svg" xml:space="preserve" width="64" height="64" viewBox="0 128 64 64"><path d="m20.923 166.286 4.923 4.923C48 171.209 48 144.063 48 144.063s-27.077-2.393-27.077 22.223zm17.23-11.077a2.462 2.462 0 0 1 0-4.923 2.462 2.462 0 0 1 0 4.923zm-14.85-2.333c-1.372 2.058-2.36 4.405-2.949 7.043C18.538 159.629 16 160 16 160s2.114-6.178 7.303-7.124zm-6.072 21.893s1.846-7.868 4.923-4.791-4.923 4.791-4.923 4.791zM32 176s.533-2.555.185-4.379c2.73-.745 5.031-1.958 6.956-3.483C37.897 173.169 32 176 32 176z" style="fill:#ecf0f1;stroke-width:2;fill-opacity:1;stroke:#2c3e50;stroke-miterlimit:4;stroke-dasharray:none;paint-order:stroke fill markers;stroke-opacity:1"/><path d="M20.557 41.277c-2.108.298-3.327 5.493-3.327 5.493s8.001-1.715 4.924-4.791c-.577-.577-1.111-.77-1.597-.702z" style="opacity:1;vector-effect:none;fill:#d35400;fill-opacity:1;stroke:#2c3e50;stroke-width:2;stroke-linecap:butt;stroke-linejoin:bevel;stroke-miterlimit:4;stroke-dasharray:none;stroke-dashoffset:0;stroke-opacity:1;paint-order:stroke fill markers" transform="translate(0 128)"/><path d="M21.715 169.27c-1.048.149-1.653 2.73-1.653 2.73s3.976-.852 2.447-2.38c-.287-.288-.553-.383-.794-.35" style="opacity:1;vector-effect:none;fill:#f1c40f;fill-opacity:1;stroke:none;stroke-width:2.00000024;stroke-linecap:butt;stroke-linejoin:bevel;stroke-miterlimit:4;stroke-dasharray:none;stroke-dashoffset:0;stroke-opacity:1;paint-order:stroke fill markers"/><path d="M23.303 24.877C18.113 25.822 16 32 16 32s2.537-.372 4.354-.082c.588-2.638 1.576-4.983 2.949-7.041M39.14 40.139c-1.924 1.525-4.223 2.737-6.954 3.482C32.534 45.445 32 48 32 48s5.896-2.83 7.14-7.861" style="fill:#3498db;stroke:none;stroke-width:1px;stroke-linecap:butt;stroke-linejoin:miter;stroke-opacity:1;fill-opacity:1" transform="translate(0 128)"/><path d="M38.154 22.285a2.463 2.463 0 1 0 2.46 2.463 2.463 2.463 0 0 0-2.46-2.463" style="opacity:1;vector-effect:none;fill:#2c3e50;fill-opacity:1;stroke:none;stroke-width:2;stroke-linecap:butt;stroke-linejoin:bevel;stroke-miterlimit:4;stroke-dasharray:none;stroke-dashoffset:0;stroke-opacity:1;paint-order:stroke fill markers" transform="translate(0 128)"/></svg>
